X: 003
T: Love in a Village
%R: reel
B: Stewart "A Select Collection of Airs, Jigs, Marches and Reels", ca.1784, p.2 #3
F: http://imslp.org/wiki/A_Select_Collection_of_Airs,_Jigs,_Marches_and_Reels_%28Various%29
Z: 2017 John Chambers <jc:trillian.mit.edu>
M: C|
L: 1/8
K: G
% - - - - - - - - - -
B |\
GGGG (B/c/d) (BG) | GGGG (F/G/A) (FD) |\
GGGG (B/c/d) (BG) | (c/d/e) (A/B/c) BGG :|
|: f |\
gggd (B/c/d) (BG) | gggB (A/B/c) (A=F) |\
Gggd (B/c/d) (BG) | (c/d/e) (A/B/c) BGG :|

%%sep 1 1 500
%%sep 1 1 500

